X:1
T: For Eugene
C: Liz Carroll
Z: Liz Merton
S: https://thesession.org/tunes/17187#setting32942
R: hornpipe
M: 4/4
L: 1/8
K: Gmaj
|:GA|BdcA G2 (3GDB,|CB,CE D<G, B,D|Bdgb a2 (3fga|gd (3Bcd c2B2|
g2 (3gab a2 (3agf|(3gdB c2 (3G=FE FD|^FGAB (3cde d2|(3AAA GF G2:|GA
|:BGDB c2B2|AFDF AFGF|(3EFGC2(3EFG ce|fdAG F<A dc|
BGDB c2B2|AFDF AFGF|ECE2(3cde d2|(3AAA GF G2 GA:|

